X:3211
T:Katarinas Vals (Maria Jonsson)
O:england
C:Svart Kaffe
M:3/4
L:1/8
K:C
AB cB AG|A2E3F|DE CB, A,B,|CD E2E2|\
B,3E EG|Bc A2E2|AB cB AG|A2E3F|
DE CB, A,B,|CD E2E2|B,3E EG|Bc A4:|\
|:A3a ga|ef ed e2|d3f ed|cd Bc A2|
z2EG Bc|A3c BA|GA ED E2-|E6|A3a ga|\
ef ed e2|dB2c A2|BG2A F2|ED E2G2|A6:|
